svg/movie_open_minus.svg

<svg xmlns="http://www.w3.org/2000/svg" viewBox="0 0 24 24"><path d="M14.75 7.46 12 3.93l1.97-.39 2.74 3.53zm6.87-1.36-.78-3.92-3.93.78 2.74 3.54zm-9.81 1.95L9.07 4.5l-1.97.41 2.75 3.53zM4.16 5.5l-.98.19a2.01 2.01 0 0 0-1.57 2.35L2 10l4.9-.97zM19 13c1.1 0 2.12.3 3 .81V10H2v10a2 2 0 0 0 2 2h9.81c-.51-.88-.81-1.9-.81-3 0-3.31 2.69-6 6-6m-4 5v2h8v-2z"/></svg>

<?xml version="1.0" encoding="UTF-8"?><!DOCTYPE svg PUBLIC "-//W3C//DTD SVG 1.1//EN" "http://www.w3.org/Graphics/SVG/1.1/DTD/svg11.dtd"><svg xmlns="http://www.w3.org/2000/svg" xmlns:xlink="http://www.w3.org/1999/xlink" version="1.1" id="mdi-movie-open-minus" width="24" height="24" viewBox="0 0 24 24"><path d="M14.75 7.46L12 3.93L13.97 3.54L16.71 7.07L14.75 7.46M21.62 6.1L20.84 2.18L16.91 2.96L19.65 6.5L21.62 6.1M11.81 8.05L9.07 4.5L7.1 4.91L9.85 8.44L11.81 8.05M4.16 5.5L3.18 5.69C2.1 5.91 1.4 6.96 1.61 8.04L2 10L6.9 9.03L4.16 5.5M19 13C20.1 13 21.12 13.3 22 13.81V10H2V20C2 21.11 2.9 22 4 22H13.81C13.3 21.12 13 20.1 13 19C13 15.69 15.69 13 19 13M15 18V20H23V18H15Z" /></svg>
